X:2230
T:No title (Gyn Ennym)
O:Isle of Man 
C:John Joughin (aged 77), The Garey, Lezayre 
C:Traditional
Z:Clague collection
B:Kiaull Vannin 230 (see also KV228)
L:1/4
M:4/4 
Q:120 
K:D 
D2 F G|A2 B2|A A G/F/ E|F4|D2 F G|A2 B2|A A G/F/ E|F4|
A2 F E/F/|D2 E2|G G F/E/ D|E4|D2 F F|G2 A2|G F E E|D4|| 

